static/images/onboarding/help-out.svg

<svg width="95" height="95" viewBox="0 0 95 95" fill="none" xmlns="http://www.w3.org/2000/svg">
<g opacity="0.5">
<path fill-rule="evenodd" clip-rule="evenodd" d="M68.4001 47.0796C68.4001 57.1684 58.3863 65.3343 46.0001 65.3343C44.4019 65.3343 42.8286 65.2094 41.3303 64.9347L32.6827 69.6157C31.1144 70.4646 30.0758 69.7396 30.3633 67.9927L31.5163 60.9891C26.6717 57.6678 23.6001 52.6734 23.6001 47.0796C23.6001 36.9909 33.6389 28.8 46.0001 28.8C58.3863 28.8 68.4001 36.9909 68.4001 47.0796Z" fill="#FFAB19"/>
</g>
<path fill-rule="evenodd" clip-rule="evenodd" d="M47.0595 36.9626L49.4114 40.9665L54.044 41.3014C55.6224 41.4141 56.3848 43.2872 55.3356 44.4715L52.2518 47.9458L53.3668 52.4551C53.7462 53.9902 52.2 55.2948 50.751 54.6624L46.4939 52.8037L42.5502 55.2581C41.2062 56.0934 39.4892 55.0258 39.6414 53.452L40.0944 48.8289L36.5424 45.8366C35.3317 44.8165 35.8154 42.8528 37.3609 42.5132L41.898 41.5122L43.645 37.2106C44.2417 35.7461 46.2575 35.5996 47.0595 36.9626Z" fill="white" fill-opacity="0.5"/>
<g opacity="0.5">
<path fill-rule="evenodd" clip-rule="evenodd" d="M75.5894 64.9522L76.1397 67.4461L78.5062 68.4081C79.3128 68.7352 79.3934 69.8445 78.6435 70.2858L76.4402 71.5796L76.2576 74.1278C76.1954 74.9953 75.165 75.4152 74.5144 74.8383L72.6031 73.143L70.1232 73.7571C69.2783 73.9658 68.5614 73.1157 68.9083 72.3183L69.9305 69.9768L68.5805 67.8082C68.1204 67.0689 68.7069 66.1238 69.5731 66.2087L72.1166 66.4556L73.7611 64.502C74.3219 63.8372 75.4013 64.103 75.5894 64.9522Z" fill="#FFAB19"/>
</g>
</svg>

<svg width="95" height="95" fill="none" xmlns="http://www.w3.org/2000/svg"><path fill-rule="evenodd" clip-rule="evenodd" d="M68.4 47.08c0 10.088-10.014 18.254-22.4 18.254-1.598 0-3.171-.125-4.67-.4l-8.647 4.682c-1.569.849-2.607.124-2.32-1.623l1.153-7.004c-4.844-3.321-7.916-8.316-7.916-13.91C23.6 36.992 33.64 28.8 46 28.8c12.386 0 22.4 8.19 22.4 18.28Z" fill="#FFAB19" opacity=".5"/><path fill-rule="evenodd" clip-rule="evenodd" d="m47.06 36.963 2.351 4.004 4.633.334c1.578.113 2.34 1.986 1.292 3.17l-3.084 3.475 1.115 4.51c.38 1.534-1.167 2.839-2.616 2.206l-4.257-1.858-3.944 2.454c-1.344.835-3.06-.232-2.909-1.806l.453-4.623-3.552-2.992c-1.21-1.02-.727-2.984.819-3.324l4.537-1 1.747-4.302c.597-1.465 2.612-1.611 3.414-.248Z" fill="#fff" fill-opacity=".5"/><path fill-rule="evenodd" clip-rule="evenodd" d="m75.59 64.952.55 2.494 2.366.962a1.05 1.05 0 0 1 .138 1.878L76.44 71.58l-.182 2.548a1.05 1.05 0 0 1-1.744.71l-1.91-1.695-2.48.614a1.05 1.05 0 0 1-1.216-1.439l1.022-2.341-1.35-2.169a1.05 1.05 0 0 1 .993-1.6l2.544.248 1.644-1.954a1.05 1.05 0 0 1 1.828.45Z" fill="#FFAB19" opacity=".5"/></svg>
